arkscan/icons/kucoin.svg

<svg width="200" height="200" viewBox="0 0 200 200" fill="none" xmlns="http://www.w3.org/2000/svg">
<g clip-path="url(#clip0_9357_31652)">
<path fill-rule="evenodd" clip-rule="evenodd" d="M66.4238 100.024L125.664 159.272L163.056 121.88C169.744 115.864 179.968 116.128 186.328 122.488C192.688 128.848 192.96 139.08 186.936 145.76L137.592 195.112C130.96 201.632 120.336 201.632 113.704 195.112L42.5198 123.904V166.224C42.5198 175.568 34.9518 183.136 25.6078 183.136C16.2638 183.136 8.6958 175.568 8.6958 166.224V33.76C8.6958 24.424 16.2638 16.848 25.6078 16.848C34.9518 16.848 42.5198 24.424 42.5198 33.76V76.08L113.696 4.88805C120.32 -1.63195 130.96 -1.63195 137.584 4.88805L186.96 54.232C192.976 60.92 192.712 71.144 186.352 77.504C179.992 83.864 169.76 84.136 163.08 78.112L125.688 40.72L66.4238 100.024ZM125.688 83.088C118.84 83.088 112.664 87.208 110.04 93.536C107.416 99.864 108.864 107.144 113.704 111.992C118.544 116.84 125.832 118.288 132.16 115.672C138.488 113.048 142.616 106.88 142.616 100.024C142.616 95.5361 140.84 91.232 137.664 88.048C134.496 84.872 130.184 83.088 125.696 83.088H125.688Z" fill="#23AF91"/>
</g>
<defs>
<clipPath id="clip0_9357_31652">
<rect width="200" height="200" fill="white"/>
</clipPath>
</defs>
</svg>

<svg width="200" height="200" fill="none" xmlns="http://www.w3.org/2000/svg"><g clip-path="url(#a)"><path fill-rule="evenodd" clip-rule="evenodd" d="m66.424 100.024 59.24 59.248 37.392-37.392c6.688-6.016 16.912-5.752 23.272.608 6.36 6.36 6.632 16.592.608 23.272l-49.344 49.352c-6.632 6.52-17.256 6.52-23.888 0L42.52 123.904v42.32c0 9.344-7.568 16.912-16.912 16.912s-16.912-7.568-16.912-16.912V33.76c0-9.336 7.568-16.912 16.912-16.912S42.52 24.424 42.52 33.76v42.32l71.176-71.192c6.624-6.52 17.264-6.52 23.888 0l49.376 49.344c6.016 6.688 5.752 16.912-.608 23.272-6.36 6.36-16.592 6.632-23.272.608L125.688 40.72l-59.264 59.304Zm59.264-16.936a16.936 16.936 0 1 0 6.472 32.584 16.936 16.936 0 0 0 10.456-15.648 16.95 16.95 0 0 0-4.952-11.976 16.91 16.91 0 0 0-11.968-4.96h-.008Z" fill="#23AF91"/></g><defs><clipPath id="a"><path fill="#fff" d="M0 0h200v200H0z"/></clipPath></defs></svg>
